img/vk.svg

<svg fill="none" height="45" viewBox="0 0 45 45" width="45" xmlns="http://www.w3.org/2000/svg"><path d="m22.5 0c-12.426 0-22.5 10.0736-22.5 22.5s10.074 22.5 22.5 22.5 22.5-10.0736 22.5-22.5-10.074-22.5-22.5-22.5zm11.4132 24.9335c1.0487 1.0242 2.1582 1.9882 3.0996 3.1184.4171.5.8102 1.0169 1.1094 1.5984.4273.8291.0415 1.7383-.7006 1.7876l-4.6096-.001c-1.1905.0985-2.1379-.3816-2.9366-1.1955-.6376-.6487-1.2292-1.3415-1.8433-2.0122-.2509-.2753-.5151-.5345-.83-.7385-.6284-.4088-1.1744-.2835-1.5344.3729-.3669.668-.4507 1.4083-.4857 2.1517-.0501 1.0869-.3779 1.371-1.4685 1.4221-2.3303.1091-4.5414-.2445-6.5965-1.4193-1.8129-1.0363-3.216-2.4988-4.4387-4.1547-2.381-3.2281-4.20449-6.771-5.8429-10.4156-.36875-.8208-.09898-1.26.80654-1.2771 1.50445-.029 3.00886-.0253 4.51336-.0013.6123.0096 1.0174.36 1.2526.9377.813 2.0003 1.8097 3.9034 3.0586 5.6684.3329.47.6726.9387 1.1565 1.2706.534.3664.9409.2454 1.1928-.3508.1611-.3789.2306-.784.2656-1.19.1197-1.3908.1339-2.7811-.0732-4.1663-.1289-.8668-.6164-1.4266-1.4805-1.5905-.4401-.0833-.3757-.2463-.1616-.4977.3715-.4345.7195-.7034 1.4151-.7034l5.2081-.0009c.8208.1611 1.0049.5294 1.1163 1.3562l.0046 5.7876c-.0096.32.1607 1.2683.7352 1.4778.4604.1519.7642-.2173 1.0395-.5087 1.249-1.3254 2.1388-2.8897 2.9357-4.5088.3517-.714.6551-1.4528.9497-2.1931.2192-.5474.5598-.8167 1.1776-.8075l5.0152.006c.1477 0 .2978.0014.4442.0267.8452.1446 1.0768.5082.8153 1.3327-.4116 1.2955-1.2112 2.3746-1.9929 3.4564-.8378 1.1583-1.7314 2.276-2.561 3.4393-.7623 1.0635-.702 1.5989.2445 2.5224z" fill="#cacaca"/></svg>

<svg width="45" height="45" viewBox="0 0 45 45" fill="none" xmlns="http://www.w3.org/2000/svg">
<path d="M22.5 0C10.074 0 0 10.0736 0 22.5C0 34.9264 10.074 45 22.5 45C34.926 45 45 34.9264 45 22.5C45 10.0736 34.926 0 22.5 0ZM33.9132 24.9335C34.9619 25.9577 36.0714 26.9217 37.0128 28.0519C37.4299 28.5519 37.823 29.0688 38.1222 29.6503C38.5495 30.4794 38.1637 31.3886 37.4216 31.4379L32.812 31.4369C31.6215 31.5354 30.6741 31.0553 29.8754 30.2414C29.2378 29.5927 28.6462 28.8999 28.0321 28.2292C27.7812 27.9539 27.517 27.6947 27.2021 27.4907C26.5737 27.0819 26.0277 27.2072 25.6677 27.8636C25.3008 28.5316 25.217 29.2719 25.182 30.0153C25.1319 31.1022 24.8041 31.3863 23.7135 31.4374C21.3832 31.5465 19.1721 31.1929 17.117 30.0181C15.3041 28.9818 13.901 27.5193 12.6783 25.8634C10.2973 22.6353 8.47381 19.0924 6.8354 15.4478C6.46665 14.627 6.73642 14.1878 7.64194 14.1707C9.14639 14.1417 10.6508 14.1454 12.1553 14.1694C12.7676 14.179 13.1727 14.5294 13.4079 15.1071C14.2209 17.1074 15.2176 19.0105 16.4665 20.7755C16.7994 21.2455 17.1391 21.7142 17.623 22.0461C18.157 22.4125 18.5639 22.2915 18.8158 21.6953C18.9769 21.3164 19.0464 20.9113 19.0814 20.5053C19.2011 19.1145 19.2153 17.7242 19.0082 16.339C18.8793 15.4722 18.3918 14.9124 17.5277 14.7485C17.0876 14.6652 17.152 14.5022 17.3661 14.2508C17.7376 13.8163 18.0856 13.5474 18.7812 13.5474L23.9893 13.5465C24.8101 13.7076 24.9942 14.0759 25.1056 14.9027L25.1102 20.6903C25.1006 21.0103 25.2709 21.9586 25.8454 22.1681C26.3058 22.32 26.6096 21.9508 26.8849 21.6594C28.1339 20.334 29.0237 18.7697 29.8206 17.1506C30.1723 16.4366 30.4757 15.6978 30.7703 14.9575C30.9895 14.4101 31.3301 14.1408 31.9479 14.15L36.9631 14.156C37.1108 14.156 37.2609 14.1574 37.4073 14.1827C38.2525 14.3273 38.4841 14.6909 38.2226 15.5154C37.811 16.8109 37.0114 17.89 36.2297 18.9718C35.3919 20.1301 34.4983 21.2478 33.6687 22.4111C32.9064 23.4746 32.9667 24.01 33.9132 24.9335Z" fill="#CACACA"/>
</svg>
